X: 114
T: Bellamira
R: march
L:1/8
M:2/2
K:Gm
|:"Gm"G2 D4 AB | G4 B4 |"F" A2F2 f2c2 | A4 c4 |
"Gm"B2G2 d2g2 | "D"^f4 d4 | "Cm"edcB "D"ABc2 | "Gm"B4 G4 :|
"Gm"G3B/c/ d3B/c/ | d2B2 G2B2 | "F"A3A/B/ c3A/B/ | c2A2 F2f2 |
"Gm"d3g/a/ b3a/g/ | "D"a2g2 ^f3=e/^f/ | "Cm"g2a2 "D"a3g | "Gm"g4 d3B/A/ |]"end""Gm"g8|]

